X:1
T:Smile and Sing
T:Smile and Sing
T:Grant Colfax Tullar
T:Grant Colfax Tullar, 1899
T:Public Domain Courtesy of the Cyber Hymnal™
T:Public Domain Courtesy of the Cyber Hymnal™
C:Grant Colfax Tullar
Z:Public Domain
Z:Courtesy of the Cyber Hymnal™
%%score ( 1 2 ) ( 3 4 )
L:1/8
Q:1/4=100
M:4/4
K:Ab
V:1 treble 
V:2 treble 
V:3 bass 
V:4 bass 
V:1
 [Cc][CB][CA][CG] [CB][CA][CG][CF] | [DE]2 [Dd]2 [Dd]4 | E[Ed][Ec][DB] [C=A]2 [DB]2 | %3
w: 1.~When the heart is heav- y and the|days are long,|Let each pass- ing mo- ment|
w: 2.~Some- one needs the com- fort that a|song can bring,|If thy heart is hap- py|
w: 3.~Ma- ny are in sor- row and the|clouds hang low,|You can cheer and com- fort|
 [Ec][DB][DA][DF] [CE]4 | [Ec][Ee][Ed][Ec] [FB]2 [DF]2 | [DB][Ed][Ec][DB] [CA]4 | %6
w: ech- o with a song.|Fill some life with cour- age,|com- fort now the sad—|
w: let it gai- ly sing.|Some- one’s path- way bright- en,|lift some load of care—|
w: as you on- ward go.|Win some soul for Je- sus,|from the path of shame|
 [DF][FA][EG][DF] [CE][EA][Ed][Ec] | [=DB]2 [_DE]2 (A->[EA][FA-]/[GA-]/A/B/) || %8
w: Ma- ny lives are lone- ly, you can|make them glad. * * * * *|
w: Seek some heart to bright- en, and its|bur- den share. * * * * *|
w: Giv- ing all the glor- y to His|pre- cious name. * * * * *|
"^Refrain" [Cc]2 [CB]2 [CA]2 [CG]2 | [CB][CA][CG][CA] [DG]4 | E2 [Ed]2 [Ec]2 [DB]2 | %11
w: |||
w: Smile and sing, some|hap- py, hap- py song,|Days of sad- ness|
w: |||
 [=D=B][Ec][_DA][DF] [CE]4 | [Ec]2 [Ee]2 [Ed]2 [Ec]2 | [Fc][FB][F=A][FB] [DF]4 | %14
w: |||
w: will not tar- ry long;|Smile and sing, ’twill|drive the clouds a- way—|
w: |||
 (EF) (GA) B2 [Fd]2 | [Ec][Ed][Ec][DB] [CA]4 |] %16
w: ||
w: Smile * and * sing thro’|ev- ery pass- ing day.|
w: ||
V:2
 x8 | x8 | E x7 | x8 | x8 | x8 | x8 | x4 C4 || x8 | x8 | E2 x6 | x8 | x8 | x8 | x4 B2 x2 | x8 |] %16
V:3
 [A,,E,][A,,E,][A,,E,][A,,E,] [A,,A,][A,,A,][A,,A,][A,,A,] | [E,G,]2 [E,G,]2 [E,G,]4 | %2
 [E,G,][E,B,][E,A,][E,G,] [E,^F,]2 [E,G,]2 | [A,,A,][A,,E,][A,,F,][A,,G,] [A,,A,]4 | %4
 A,[A,C][A,B,]A, [D,D]2 [D,A,]2 | [E,G,][E,B,][E,A,][=E,G,] [F,A,]4 | %6
 [D,A,][D,A,][D,A,][D,A,] [A,,A,][C,A,][B,,G,][A,,A,] | [B,,A,]2 [E,G,]2 [A,,E,A,]4 || %8
 [A,,E,]2 [E,,E,]2 [A,,E,]2 [E,,E,]2 | [A,,E,][A,,E,][E,,E,][E,,E,] [B,,E,]4 | %10
 [E,G,]2 [E,B,]2 [E,A,]2 [E,G,]2 | [A,,A,][A,,A,][A,,F,][A,,G,] [A,,A,]4 | A,2 [A,C]2 [G,B,]2 A,2 | %13
 [D,D][D,D][D,D][D,D] [D,A,]4 | (E,F,) (G,A,) A,2 [D,A,]2 | [E,A,][E,B,][E,A,][E,G,] [A,,A,]4 |] %16
V:4
 x8 | x8 | x8 | x8 | A, x A, x5 | x8 | x8 | x8 || x8 | x8 | x8 | x8 | A,2 x2 A,2 x2 | x8 | %14
 x4 A,2 x2 | x8 |] %16

